svgs/charts/line-chart-up-03.svg

<svg width="24" height="24" viewBox="0 0 24 24" fill="none" xmlns="http://www.w3.org/2000/svg">
<path d="M17 9L11.5657 14.4343C11.3677 14.6323 11.2687 14.7313 11.1545 14.7684C11.0541 14.8011 10.9459 14.8011 10.8455 14.7684C10.7313 14.7313 10.6323 14.6323 10.4343 14.4343L8.56569 12.5657C8.36768 12.3677 8.26867 12.2687 8.15451 12.2316C8.05409 12.1989 7.94591 12.1989 7.84549 12.2316C7.73133 12.2687 7.63232 12.3677 7.43431 12.5657L3 17M17 9H13M17 9V13M7.8 21H16.2C17.8802 21 18.7202 21 19.362 20.673C19.9265 20.3854 20.3854 19.9265 20.673 19.362C21 18.7202 21 17.8802 21 16.2V7.8C21 6.11984 21 5.27976 20.673 4.63803C20.3854 4.07354 19.9265 3.6146 19.362 3.32698C18.7202 3 17.8802 3 16.2 3H7.8C6.11984 3 5.27976 3 4.63803 3.32698C4.07354 3.6146 3.6146 4.07354 3.32698 4.63803C3 5.27976 3 6.11984 3 7.8V16.2C3 17.8802 3 18.7202 3.32698 19.362C3.6146 19.9265 4.07354 20.3854 4.63803 20.673C5.27976 21 6.11984 21 7.8 21Z" stroke="#1C1D20" stroke-width="1.5" stroke-linecap="round" stroke-linejoin="round"/>
</svg>

<svg fill="none" xmlns="http://www.w3.org/2000/svg" viewBox="0 0 24 24"><path d="m17 9-5.434 5.434c-.198.198-.297.297-.412.334a.499.499 0 0 1-.309 0c-.114-.037-.213-.136-.41-.334l-1.87-1.868c-.197-.198-.296-.297-.41-.334a.499.499 0 0 0-.31 0c-.114.037-.213.136-.41.334L3 17m14-8h-4m4 0v4m-9.2 8h8.4c1.68 0 2.52 0 3.162-.327a3 3 0 0 0 1.311-1.311C21 18.72 21 17.88 21 16.2V7.8c0-1.68 0-2.52-.327-3.162a3 3 0 0 0-1.311-1.311C18.72 3 17.88 3 16.2 3H7.8c-1.68 0-2.52 0-3.162.327a3 3 0 0 0-1.311 1.311C3 5.28 3 6.12 3 7.8v8.4c0 1.68 0 2.52.327 3.162a3 3 0 0 0 1.311 1.311C5.28 21 6.12 21 7.8 21Z" stroke="#1C1D20" stroke-width="1.5" stroke-linecap="round" stroke-linejoin="round"/></svg>
